X: 35845
T: Salvation, The
R: reel
M: 4/4
K: Amajor
EGAE GAEG|AecA BAFA|B3B- BAFA|dAcA BAFA|
EGAE GAEG|AecA BAFA|BccA BcAF|EFAB cA~A2:|:
BceB ceBc|effe cBBe|f3f- fece|agae fecB|
cdec defg|agae fece|fecA B2AB|cBAE FAE2:|
EGAE GAEG|AEGA EGAE|FGAF GAFG|AFGA FGAF|
GABG ABGA|BGAB GABz|BccA BcAF|EFAB cA~A2:|

